X:1
T:The Cliffs Of Moher
R:jig
M:6/8
L:1/8
K:Ador
|:~a2a bag|eaf ged|~c2A BAG|EFG ABd|
|eaa bag|eaf ged|~c2A BAG|EFG A3:|
|~e2e dBA|~e2e dBA|GAB dBA|GAB ~d2d|
|~e2e dBA|~e2e dBA|GAB dBG|BAG A3|
|~e2e dBA|~e2e dBA|GAB dBA|GAB ~d2d|
|~e2e dee|cee Bee|EFG AGE|DB,D A,3|